X:1
T:Title
%%score { ( 1 4 5 ) | ( 2 3 ) }
L:1/8
M:4/4
K:F
V:1 treble nm="Grand Piano"
V:4 treble 
V:5 treble 
V:2 bass 
V:3 bass 
V:1
 z4 z[Q:1/4=88] A_A=A | [A,F]3 c [Bd]c[_A=B]c | [FA]4- [FA]A[EG]A | [Ec]3 d [Ec]G[_E^F]G | %4
 A4- AA_A=A | [A,F]3 A [_Ec]d[EA][Ec] | [DB]4- [DB]B[DA]G | [Cc]F[DG]B [CA]3 [B,G] | %8
 [A,F]4- [A,F]cdc | e4 z2 .B2 | A6 z2 | =B4 z4 |[M:11/16] c/-c/-c/-c/-c/-c/-c/-c-<c | %13
[M:3/8] A_A=A |[M:4/4] z CC[CFA] A-[Ad]F-[_EFc] | FFFF z B[DA]G | %16
[M:17/16] [Cc]/-[Cc]/-[Cc]-<[Cc] z/ z/ z/ z/ z/ z/ z/ z/ z/ z |[M:5/8] [A,CF]-[A,CF]- [A,CF]3 | %18
[M:3/8] z3 |[M:4/4] z [CG][CG][CGc] ccdc | f-[Af-][cf-][Bf-] [Af][Af][Bf][cf] | ffed c2 BA | %22
[M:11/16] G/-G/-G/-G/-G/-G/-G/-G-<G |[M:3/8] A_A=A |[M:4/4] z CC[CFA] A-[Ad]F-[_EFc] | %25
 FFFF z B[DA]G |[M:17/16] [Cc]/-[Cc]/-[Cc]-<[Cc] z/ z/ z/ z/ z/ z/ z/ z/ z/ z | %27
[M:13/8] [A,CF]-[A,CF]- [A,CF]3 z z z z z z z2 |] %28
V:2
 z4 z C=B,C | F,,C, z A z[K:treble] A z A | z4 C2[K:treble] C2 | C,G, z E z E z E | %4
 z[K:treble] FED CC[K:bass]=B,C | F,,C, z C z _EF,A,, | B,,D,F,B, z D z D | z C z D C,C,D,E, | %8
 F,D,C,A,, .F,,2 z2 | z [C,C][C,C][C,C][K:treble] [CEB]2[K:bass] [C,C]2 | %10
 [F,CF][F,C][F,C][F,C] .[F,C]2 z2 | z4 G,2 z2 |[M:11/16] [C,G,][C,G,][C,_A,][C,=A,][C,B,]3/2 | %13
[M:3/8] C=B,C |[M:4/4] A,4 F,2 z2 | B,,B,,B,,B,, z D z D |[M:17/16] A,,A,,A,,A,,B,,G,,C,3/2C, | %17
[M:5/8] F,,-F,,- F,,3 |[M:3/8][K:treble] ccc |[M:4/4] e4[K:bass] z4[K:treble] | %20
 [F,F][K:bass][F,C][F,E][F,D] [F,C][F,C][K:treble][G,C][A,_E] | %21
 [B,DB][B,DB][B,CB][B,F] [A,CF]2[K:bass] C-[F,CF] | %22
[M:11/16] [C,C]-<[C,C][D,=B,]-<[D,B,][C,_B,]3/2 |[M:3/8] C=B,C |[M:4/4] A,4 F,2 z2 | %25
 B,,B,,B,,B,, z D z D |[M:17/16] A,,A,,A,,A,,B,,G,,C,3/2C, | %27
[M:13/8] F,,-F,,- F,,3 z z z z z z z2 |] %28
V:3
 x8 | z2 F,2 F,,2[K:treble] F,2 | F,,C,F,A, z[K:treble] F z F | z2 C,2 C,,2 C,2 | %4
 F,,6[K:treble][K:bass] z2 | z2 F,2 F,,2 z2 | z4 B,,2 B,2 | A,,2 B,,2 z4 | x8 | %9
 x4[K:treble] x2[K:bass] x2 | x8 | z [D,G,][D,G,][D,G,] z A [G,,G,]2 |[M:11/16] x11/2 |[M:3/8] x3 | %14
[M:4/4] z F,F,F, z _EF,A,, | z4 B,,2 B,,2 |[M:17/16] x17/2 |[M:5/8] x5 |[M:3/8][K:treble] x3 | %19
[M:4/4] z[K:bass] C,C,E, G,2[K:treble] [CEB]2 | x[K:bass] x5[K:treble] x2 | z4 z2[K:bass] .[G,E]2 | %22
[M:11/16] x11/2 |[M:3/8] x3 |[M:4/4] z F,F,F, z _EF,A,, | z4 B,,2 B,,2 |[M:17/16] x17/2 | %27
[M:13/8] x13 |] %28
V:4
 x8 | x8 | x8 | x8 | .F2 z2 z4 | x8 | x8 | x8 | x8 | z BB[Bd] cdE-[Ec] | z FFF FAAA | %11
 z FF[F=B] [FB]f[Ge][Fd] |[M:11/16] EEF^FG3/2 |[M:3/8] x3 |[M:4/4] F4 .[_Ec]2 .[EA]2 | [DB]6 z2 | %16
[M:17/16] FFF[CF][DFG][DGB][CFA]3/2[B,CG] |[M:5/8] x5 |[M:3/8] x3 |[M:4/4] z4 [EB]2 z2 | %20
 .A2 z2 z4 | x8 |[M:11/16] E-<EF-<FE3/2 |[M:3/8] x3 |[M:4/4] F4 .[_Ec]2 .[EA]2 | [DB]6 z2 | %26
[M:17/16] FFF[CF][DFG][DGB][CFA]3/2[B,CG] |[M:13/8] x13 |] %28
V:5
 x8 | x8 | x8 | x8 | x8 | x8 | x8 | x8 | x8 | x8 | x8 | x8 |[M:11/16] x11/2 |[M:3/8] x3 | %14
[M:4/4] x8 | z4 F2 F2 |[M:17/16] x17/2 |[M:5/8] x5 |[M:3/8] x3 |[M:4/4] x8 | x8 | x8 | %22
[M:11/16] x11/2 |[M:3/8] x3 |[M:4/4] x8 | z4 F2 F2 |[M:17/16] x17/2 |[M:13/8] x13 |] %28

